X: 19631
T: Jaybird
R: reel
M: 4/4
K: Gmajor
|:G2B2 BABA|F2A2 A2F2|E2e2 e2ef|gfed cBAF|
G2B2 BABA|F2A2 A2AB|d2de dBAG|F2D2 D4:|
|:f2A2 f2A2|fefg a2gf|e2A2 e2A2|edef g2ag|
f2A2 f2A2|fefg a2AB|d2de dBAG|F2D2 D4:|

